svg/justvector/hi5.svg

<svg xmlns="http://www.w3.org/2000/svg" viewBox="0 0 100 100" enable-background="new 0 0 100 100"><path d="m91.84 44.584l.815-15.8h-30.26l-4.519 24.503.122.016c-.381.768-.666 1.599-.842 2.479v3.907h2.998v5.812c3.075 3.306 8.318 5.715 15.527 5.715 11.374 0 19.315-7.188 19.315-17.479 0-3.21-1.076-6.51-3.158-9.153m-15.842 22.712c-9.219 0-14.813-4.743-14.813-9.396 0-3.134 2.148-5.998 5.952-5.998 2.641 0 3.982 1.746 3.982 3.805 0 1.118-.447 1.566-.447 2.461 0 1.253.582 2.104 2.686 2.104 2.953 0 4.386-3.089 4.386-6.177 0-2.729-1.075-4.788-3.401-4.788-1.7 0-2.596.671-2.954 1.745l-8.592-1.118 3.178-17.229h22.867l-.448 8.682h-15.17l-.851 4.564c.985-1.521 4.118-2.819 8.146-2.819 7.159 0 10.874 5.504 10.874 10.606 0 7.517-5.416 13.558-15.395 13.558m-14.919-11.527v-24.613h-16.611v7.607h-5.504v14.597h2.998v2.408h-2.998v14.598h25.11v-14.597h-2.998m-12.691-20.693h8.771v5.817h-8.771v-5.817m11.769 31.37h-17.273v-6.757h2.998v-10.248h-2.998v-6.758h14.275v17.01h2.998v6.757m-17.273 0v-6.757h2.936v-3.921h-2.998v-5.746c0-6.699-4.648-11.751-10.812-11.751-1.793 0-3.431.349-4.896.937v-10.424h-22.12v14.598h2.954v12.387h-2.954v14.598h40.821v-3.92h-2.935zm-.985 0h-15.617v-6.757h1.342v-6.669c0-2.059-.135-3.938-1.342-3.938-1.164 0-2.327 1.477-3.089 4.475v6.132h1.298v6.757h-15.573v-6.757h2.954v-20.227h-2.954v-6.758h14.275v15.08c1.521-2.864 4.654-5.594 8.816-5.594 3.982 0 6.892 3.356 6.892 7.831v9.667h2.998v6.757"/></svg>

<?xml version="1.0" encoding="iso-8859-1"?>
<!-- Generator: Adobe Illustrator 15.0.0, SVG Export Plug-In . SVG Version: 6.00 Build 0)  -->
<!DOCTYPE svg PUBLIC "-//W3C//DTD SVG 1.1//EN" "http://www.w3.org/Graphics/SVG/1.1/DTD/svg11.dtd">
<svg version="1.1" id="Layer_1" xmlns="http://www.w3.org/2000/svg" xmlns:xlink="http://www.w3.org/1999/xlink" x="0px" y="0px"
	 width="100px" height="100px" viewBox="0 0 100 100" style="enable-background:new 0 0 100 100;" xml:space="preserve">
<path id="hi5" d="M91.842,44.584l0.815-15.8H62.399l-4.519,24.503l0.122,0.016c-0.381,0.768-0.666,1.599-0.842,2.479v3.907h2.998
	v5.812c3.075,3.306,8.318,5.715,15.527,5.715C87.059,71.216,95,64.028,95,53.737C95,50.527,93.924,47.227,91.842,44.584z M76,67.296
	c-9.219,0-14.813-4.743-14.813-9.396c0-3.134,2.148-5.998,5.952-5.998c2.641,0,3.982,1.746,3.982,3.805
	c0,1.118-0.447,1.566-0.447,2.461c0,1.253,0.582,2.104,2.686,2.104c2.953,0,4.386-3.089,4.386-6.177
	c0-2.729-1.075-4.788-3.401-4.788c-1.7,0-2.596,0.671-2.954,1.745l-8.592-1.118l3.178-17.229h22.867l-0.448,8.682h-15.17
	l-0.851,4.564c0.985-1.521,4.118-2.819,8.146-2.819c7.159,0,10.874,5.504,10.874,10.606C91.395,61.255,85.979,67.296,76,67.296z
	 M61.081,55.769V31.156H44.47v7.607h-5.504V53.36h2.998v2.408h-2.998v14.598h25.113V55.769H61.081z M48.39,35.076h8.771v5.817H48.39
	V35.076z M60.159,66.446H42.886v-6.757h2.998V49.441h-2.998v-6.758h14.275v17.006h2.998V66.446z M42.886,66.446v-6.757h2.936v-3.921
	h-2.998v-5.746c0-6.699-4.648-11.751-10.812-11.751c-1.793,0-3.431,0.349-4.896,0.937V28.784H5v14.598h2.954v12.387H5v14.598h40.821
	v-3.92H42.886z M41.901,66.446H26.284v-6.757h1.342v-6.669c0-2.059-0.135-3.938-1.342-3.938c-1.164,0-2.327,1.477-3.089,4.475v6.132
	h1.298v6.757H8.92v-6.757h2.954V39.462H8.92v-6.758h14.275v15.081c1.521-2.864,4.654-5.594,8.816-5.594
	c3.982,0,6.892,3.356,6.892,7.831v9.667h2.998V66.446z"/>
</svg>
